X:44
T:Teddy and Rhoda
R:reel
C:Paul S. Cranford
O:Cape Breton Island
S:http://www.cranfordpub.com
D:currently unrecorded
B:currently unpublished in book form
Z:psc, (re-formatted,updated 9/17/04)
N:I first met Johnny Wilmot at Teddy & Rhoda's place
H:                                                        copyrights Cranford Publications, SOCAN
L:1/8
Q:333
M:C|
K:D
E|DFEF DA,A,B,|DEFG AFFD|EGFG EB,B,D|EFGAB2AF|
DFEF DA,A,B,|DEFG AFFd|ecdB cABd|cAGED2D:|
|:g|fdcd AFEF|DFEF Adfa|bgfd ecAF|[1 GEFDE2Eg|
fdcd AFEF|DFEF Adfa|bgfd ecAd|cAGED2D:|
[2 GEFD EA,CE|DFEF DA,A,B,|DEFG AFFd|ecdB cABd|cAGED2D|]
